svg/uf00c5-the_worthy.svg

<svg height="960" style="" width="1090" xmlns="http://www.w3.org/2000/svg"><path d="m531.83393-30-410.90537 402.76462 410.90537 404.84755-.42973-138.93601-269.53428-265.91154 269.96401-269.2538zm26.33213 0v133.51082l269.96401 269.2538-269.53431 265.91154-.4297 138.93601 410.90537-404.84755zm-26.33213 170.25763-224.18716 232.50699 224.18716 226.84304v-124.21818l-101.63416-105.45383 101.63416-105.45983zm26.33213 0v124.21819l101.63413 105.45983-101.63413 105.45383v124.21818l224.19314-226.84304zm-437.73287 276.84545v572.89692l94.15587-94.14988v-384.70457zm849.13362 0-94.15587 94.04247v384.70457l94.15587 94.14988zm-722.48634 126.33097v341.38068l94.12006-97.19373v-149.34472zm595.83904 0-94.12006 94.84223v149.34472l94.12006 97.19373z" style="stroke-width:3.05577"/></svg>

<svg xmlns="http://www.w3.org/2000/svg" width="1090" height="960">
    <path d="M531.834-30 120.929 372.765l410.905 404.847-.43-138.936L261.87 372.765 531.834 103.51zm26.332 0v133.51L828.13 372.766 558.596 638.676l-.43 138.936 410.905-404.847zm-26.332 170.258L307.647 372.765l224.187 226.843V475.389L430.2 369.936l101.634-105.46zm26.332 0v124.218L659.8 369.936 558.166 475.389v124.219L782.36 372.765zM120.433 417.103V990l94.156-94.15V511.146zm849.134 0-94.156 94.043V895.85L969.567 990zM247.08 543.434v341.38l94.12-97.193V638.276zm595.84 0-94.12 94.842v149.345l94.12 97.194z" style="stroke-width:3.05577"/>
</svg>
